X: 1
T: Rays of Hope
C: David A. Kaynor and Rebecca R. Weiss 2019
N: formerly 2019-10-19 Waltz
S: IwAR3Vc2opIFSLSh0Fi2HWYEC6yhL7hwQ54_L
M: 3/4
L: 1/4
K: G
% = = = = = = = = = =
V: 1 staves=2
D |  "G"G>FG |  "D"A2d  | "G"B3- | B2D |\
[1,3 "Em"G>FG | "Am"E>DC | "D"D3- | D2 :|\
[2    "C"E>FG |     G>AB | "D"A3- | "D7"A2 :|\
[4    "C"E>FG |  "D"G2F  | "G"G3- | G |]
|: Bd |:\
"G"g>ag | "D"f2d | "C"e3- |\
[1,3 e2  e/f/ | "G"g>ag | "Am"edc | "D"d3- | def :|\
[2,4 efg | "G"d>cB |  "D"AGF | "G"G3- | G :| z ||
% = = = = = = = = = =
V: 2
A, | "G"D>DD |  "D"F2A    | "G"G3-  | G2 B, |\
[1,3 "Em"E>DE | "Am"C>A,A, | "D"A,3- | A,2 :|\
[2    "C"C>DE |     E>FG   | "D"F3-  | "D7"F2 :|\
[4    "C"C>DE |  "D"D2C    | "G"[D3B,3]- | [DB,] |]
|: GB |:\
  "G"d> dd | "D"d2B  |  "C"c3- |\
[1,3 c2  c/d/ | "G"d>ed | "Am"cAE | "D"[A3F3]-  | Acd  :|\
[2,4 cdc | "G"B>AG |  "D"FDC | "G"[D3B,3]- | [DB,] :| z ||
